src/categories-icons-sprite/categories/svg-cat-prod-car.svg

<svg width="37" height="27" viewBox="0 0 37 27" fill="none" xmlns="http://www.w3.org/2000/svg">
<path class="p-E63950" d="M6.61823 8.07272L4.74987 4.33594H3.25195C2.65328 4.33594 2.16797 3.85062 2.16797 3.25195C2.16797 2.65329 2.65328 2.16797 3.25195 2.16797H6.08997L8.55755 7.10306L6.61823 8.07272Z" fill="#65B3E7"/>
<path class="p-AE2538" d="M30.3817 8.07272L28.4424 7.10306L30.91 2.16797H33.748C34.3466 2.16797 34.832 2.65329 34.832 3.25195C34.832 3.85062 34.3466 4.33594 33.748 4.33594H32.2501L30.3817 8.07272Z" fill="#4D98CB"/>
<path class="p-68544F" d="M30.3007 10.2544L18.4998 10.4929L6.52539 10.7531L9.75566 1.08398H27.2439L30.3007 10.2544Z" fill="#A1D1FD"/>
<path class="p-E63950" d="M28.0244 0H8.97519L5.00781 11.8804L18.4998 11.5769L31.7966 11.295L28.0244 0ZM8.04304 9.64746L10.5361 2.16797H26.4635L28.8048 9.19219L18.4998 9.40891L8.04304 9.64746Z" fill="#65B3E7"/>
<path class="p-53433F" d="M30.3009 10.2544L18.5 10.4929V1.08398H27.2441L30.3009 10.2544Z" fill="#58ADE5"/>
<path class="p-AE2538" d="M31.7968 11.295L18.5 11.5769V9.40891L28.805 9.19219L26.4637 2.16797H18.5V0H28.0246L31.7968 11.295Z" fill="#4D98CB"/>
<path class="p-53433F" d="M2.16797 20.5957V22.7637C2.16797 24.5569 3.62672 26.0156 5.41992 26.0156H7.58789C9.38109 26.0156 10.8398 24.5569 10.8398 22.7637V20.5957H2.16797Z" fill="#5FBEFF"/>
<path class="p-3E322E" d="M26.1602 20.5957V22.7637C26.1602 24.5569 27.6189 26.0156 29.4121 26.0156H31.5801C33.3733 26.0156 34.832 24.5569 34.832 22.7637V20.5957H26.1602Z" fill="#4D98CB"/>
<path class="p-53433F" d="M26.1602 9.75586H23.9922C23.9922 7.95637 22.4675 6.50391 20.668 6.50391C19.8225 6.50391 19.0637 6.82903 18.5 7.34941C17.8279 7.93469 17.416 8.80188 17.416 9.75586H15.248C15.248 7.52278 16.5922 5.61497 18.5 4.79114C19.1721 4.4877 19.9093 4.33594 20.668 4.33594C23.6598 4.33594 26.1602 6.76406 26.1602 9.75586Z" fill="#5FBEFF"/>
<path class="p-FF637B" d="M37 10.8398L33.618 14.5687L37 17.3438V21.6797H29.0002L24.4041 17.3438H12.5959L7.9998 21.6797H0V17.3438L2.08132 13.8966L0 10.8398V9.75586C0 7.95637 1.45247 6.50391 3.25195 6.50391H7.84805L12.184 8.67188H24.816L29.152 6.50391H33.748C35.5475 6.50391 37 7.95637 37 9.75586V10.8398Z" fill="#65B3E7"/>
<path class="p-3E322E" d="M20.668 6.50398C19.8225 6.50398 19.0637 6.8291 18.5 7.34949V4.79114C19.1721 4.4877 19.9093 4.33594 20.668 4.33594C23.6598 4.33594 26.1602 6.76406 26.1602 9.75586H23.9922C23.9922 7.95645 22.4675 6.50398 20.668 6.50398Z" fill="#4D98CB"/>
<path class="p-E63950" d="M37 10.8398L33.618 14.5687L37 17.3438V21.6797H29.0002L24.4041 17.3438H18.5V8.67188H24.816L29.152 6.50391H33.748C35.5475 6.50391 37 7.95637 37 9.75586V10.8398Z" fill="#4D98CB"/>
<path class="p-BBDCFF" d="M37 10.8398V17.3438H29.3281V16.2598C29.3281 13.268 30.7562 10.8398 33.748 10.8398H37Z" fill="#65B3E7"/>
<path class="p-E0F4FF" d="M7.67188 17.3438H0V10.8398H3.25195C6.24035 10.8398 7.67188 13.2714 7.67188 16.2598V17.3438Z" fill="#A1D1FD"/>
<path class="p-FFDA2D" d="M25.7484 16.1758H11.252L8 21.6797H29.0004L25.7484 16.1758Z" fill="#A1D1FD"/>
<path class="p-FDBF00" d="M29.0002 21.6797H18.5V16.1758H25.7482L29.0002 21.6797Z" fill="#5FBEFF"/>
</svg>

<svg width="37" height="27" fill="none" xmlns="http://www.w3.org/2000/svg"><path class="p-E63950" d="M6.618 8.073L4.75 4.336H3.252a1.084 1.084 0 010-2.168H6.09l2.468 4.935-1.94.97z" fill="#65B3E7"/><path class="p-AE2538" d="M30.382 8.073l-1.94-.97 2.468-4.935h2.838a1.084 1.084 0 010 2.168H32.25l-1.868 3.737z" fill="#4D98CB"/><path class="p-68544F" d="M30.3 10.254l-11.8.239-11.975.26 3.23-9.669h17.489l3.057 9.17z" fill="#A1D1FD"/><path class="p-E63950" d="M28.024 0H8.975L5.008 11.88l13.492-.303 13.297-.282L28.024 0zM8.043 9.647l2.493-7.479h15.928l2.34 7.024L18.5 9.41l-10.457.238z" fill="#65B3E7"/><path class="p-53433F" d="M30.3 10.254l-11.8.239V1.084h8.744l3.057 9.17z" fill="#58ADE5"/><path class="p-AE2538" d="M31.797 11.295l-13.297.282V9.409l10.305-.217-2.341-7.024H18.5V0h9.525l3.772 11.295z" fill="#4D98CB"/><path class="p-53433F" d="M2.168 20.596v2.168a3.256 3.256 0 003.252 3.252h2.168a3.255 3.255 0 003.252-3.252v-2.168H2.168z" fill="#5FBEFF"/><path class="p-3E322E" d="M26.16 20.596v2.168a3.255 3.255 0 003.252 3.252h2.168a3.255 3.255 0 003.252-3.252v-2.168H26.16z" fill="#4D98CB"/><path class="p-53433F" d="M26.16 9.756h-2.168c0-1.8-1.524-3.252-3.324-3.252-.845 0-1.604.325-2.168.845a3.18 3.18 0 00-1.084 2.407h-2.168A5.401 5.401 0 0118.5 4.79a5.256 5.256 0 012.168-.455c2.992 0 5.492 2.428 5.492 5.42z" fill="#5FBEFF"/><path class="p-FF637B" d="M37 10.84l-3.382 3.729L37 17.344v4.336h-8l-4.596-4.336H12.596L8 21.68H0v-4.336l2.081-3.447L0 10.84V9.756c0-1.8 1.452-3.252 3.252-3.252h4.596l4.336 2.168h12.632l4.336-2.168h4.596c1.8 0 3.252 1.452 3.252 3.252v1.084z" fill="#65B3E7"/><path class="p-3E322E" d="M20.668 6.504c-.845 0-1.604.325-2.168.845V4.791a5.256 5.256 0 012.168-.455c2.992 0 5.492 2.428 5.492 5.42h-2.168c0-1.8-1.524-3.252-3.324-3.252z" fill="#4D98CB"/><path class="p-E63950" d="M37 10.84l-3.382 3.729L37 17.344v4.336h-8l-4.596-4.336H18.5V8.672h6.316l4.336-2.168h4.596c1.8 0 3.252 1.452 3.252 3.252v1.084z" fill="#4D98CB"/><path class="p-BBDCFF" d="M37 10.84v6.504h-7.672V16.26c0-2.992 1.428-5.42 4.42-5.42H37z" fill="#65B3E7"/><path class="p-E0F4FF" d="M7.672 17.344H0V10.84h3.252c2.988 0 4.42 2.431 4.42 5.42v1.084z" fill="#A1D1FD"/><path class="p-FFDA2D" d="M25.748 16.176H11.252L8 21.68h21l-3.252-5.504z" fill="#A1D1FD"/><path class="p-FDBF00" d="M29 21.68H18.5v-5.504h7.248L29 21.68z" fill="#5FBEFF"/></svg>
